X: 38269
T: St. Brigid's Day
R: slip jig
M: 9/8
K: Amajor
|:A3 ABc ecB|A3 Ace f2e|c2e cBA F2E|FBB B2c ecB|
A3 ABc ecB|A3 Ace f2e|c2e cBA F2E|1 EFA BcB A3:|2 FBB B2A B2c||
|:d3 def afe|c2c cBc e2c|B3 Bce cBA|FBB B2A B2c|
d3 def afe|c2c cBc e2c|B3 Bce cBA|1 Bce c2B A2c:|2 Bce c2B A2F||
|:EAA AGA AGA|c2c cBA B2A|FBB BAB BAB|cef e2c BAF|
EAA AGA AGA|c2c cBA B2c|def afe cBA|1 EFA BcB A2F:|2 EFA BcB Aag||
|:f3 fgf fec|e3 eae cBA|B3 BAB cBA|B3 BAB cde|
f3 fgf fec|e3 eae cBA|B3 Bce cBA|1 Bce c2B Aag:|2 Bce e2f ecB||

